public/themes/adult/bong.svg

<?xml version="1.0" encoding="UTF-8" standalone="no"?>
<svg
   viewBox="95.289 227.216 192.7427 145.02"
   width="192.743px"
   height="145.02px"
   preserveAspectRatio="none"
   version="1.1"
   id="svg6"
   sodipodi:docname="bong.svg"
   inkscape:version="1.4.2 (ebf0e940, 2025-05-08)"
   xmlns:inkscape="http://www.inkscape.org/namespaces/inkscape"
   xmlns:sodipodi="http://sodipodi.sourceforge.net/DTD/sodipodi-0.dtd"
   xmlns="http://www.w3.org/2000/svg"
   xmlns:svg="http://www.w3.org/2000/svg">
  <defs
     id="defs6" />
  <sodipodi:namedview
     id="namedview6"
     pagecolor="#ffffff"
     bordercolor="#000000"
     borderopacity="0.25"
     inkscape:showpageshadow="2"
     inkscape:pageopacity="0.0"
     inkscape:pagecheckerboard="0"
     inkscape:deskcolor="#d1d1d1"
     inkscape:zoom="2.0590172"
     inkscape:cx="72.607457"
     inkscape:cy="65.565262"
     inkscape:window-width="1712"
     inkscape:window-height="971"
     inkscape:window-x="0"
     inkscape:window-y="39"
     inkscape:window-maximized="1"
     inkscape:current-layer="Layer_1" />
  <g
     id="Layer_1"
     transform="matrix(-0.067751,0.076445,0.076445,0.067751,248.29253,232.43618)">
    <path
       d="m 439.652,233.739 h -50.087 v -16.696 c 0,-9.223 -7.479,-16.696 -16.696,-16.696 h -50.087 -50.087 c -9.217,0 -16.696,7.473 -16.696,16.696 v 16.696 H 222.608 V 16.696 C 222.609,7.473 215.13,0 205.913,0 H 105.739 C 78.12,0 55.652,22.468 55.652,50.087 v 166.956 c 0,27.619 22.468,50.087 50.087,50.087 h 83.478 v 194.783 c 0,27.619 22.468,50.087 50.087,50.087 H 406.26 c 27.619,0 50.087,-22.468 50.087,-50.087 V 250.435 c 0.001,-9.223 -7.478,-16.696 -16.695,-16.696 z m -16.695,66.783 H 222.609 V 267.13 h 200.348 z"
       id="path1"
       transform="translate(176.08186,7.3885064)"
       style="fill:#ff368a" />
    <path
       d="m 180.97,372.236 c 6.566,0 12.584,-3.563 15.862,-9.251 4.585,-7.953 7.222,-17.161 7.222,-27.004 0,-10.231 -2.855,-19.773 -7.772,-27.934 l 12.304,-12.304 2.657,2.657 c 1.77,1.77 4.64,1.77 6.41,0 l 3.2,-3.206 c 1.771,-1.77 1.771,-4.64 0,-6.41 L 205.929,273.86 c -1.77,-1.77 -4.639,-1.77 -6.409,0 l -3.204,3.204 c -1.77,1.77 -1.77,4.639 0,6.409 l 2.657,2.657 -11.163,11.163 c -3.274,-3.221 -6.948,-6.042 -10.947,-8.359 V 245.27 l 4.523,-0.006 c 2.499,-0.003 4.524,-2.028 4.527,-4.526 l 0.011,-8.985 c 0.003,-2.507 -2.031,-4.54 -4.538,-4.537 l -63.429,0.073 c -2.498,0.003 -4.523,2.028 -4.526,4.526 l -0.012,8.988 c -0.002,2.506 2.031,4.537 4.538,4.534 l 4.523,-0.005 v 43.599 c -16.238,9.407 -27.191,26.931 -27.191,47.05 0,9.843 2.637,19.054 7.223,27.004 3.28,5.688 9.299,9.251 15.861,9.251 z m -51.675,-71.539 6.781,-3.928 v -51.451 l 27.191,-0.031 v 51.482 l 6.781,3.928 c 7.027,4.071 12.497,10.121 16.02,17.156 h -72.793 c 3.526,-7.035 8.993,-13.085 16.02,-17.156 z"
       style="stroke-width:1;fill:#ff368a"
       id="path4"
       transform="matrix(-6.4932685,7.3265031,7.3265031,6.4932686,-90.714356,-3328.3867)" />
    <path
       d="m 335.206,38.934 c -6.326,-7.054 -18.522,-7.054 -24.848,0 C 301.283,49.049 256,101.152 256,133.565 c 0,36.826 29.956,66.783 66.783,66.783 36.826,0 66.783,-29.956 66.783,-66.783 -10e-4,-32.413 -45.284,-84.516 -54.36,-94.631 z"
       id="path2"
       transform="translate(176.08186,7.3885064)"
       style="fill:#ff368a" />
  </g>
</svg>

<?xml version="1.0" encoding="utf-8"?>
<svg xmlns="http://www.w3.org/2000/svg" viewBox="95.289 227.216 192.7427 145.02" width="192.743px" height="145.02px" preserveAspectRatio="none"><g id="object-0" transform="matrix(1, 0, 0, 1, 0, 1.4210854715202004e-14)"><g><g><g id="Layer_1" style="transform-origin: 432.081px 263.389px;" transform="matrix(-0.067751, 0.076445, 0.076445, 0.067751, -177.192917, 24.351547)"><g transform="matrix(1, 0, 0, 1, 176.081833, 7.388535)"><g><path d="M439.652,233.739h-50.087v-16.696c0-9.223-7.479-16.696-16.696-16.696h-50.087h-50.087 c-9.217,0-16.696,7.473-16.696,16.696v16.696h-33.391V16.696C222.609,7.473,215.13,0,205.913,0H105.739 C78.12,0,55.652,22.468,55.652,50.087v166.956c0,27.619,22.468,50.087,50.087,50.087h83.478v194.783 c0,27.619,22.468,50.087,50.087,50.087h166.956c27.619,0,50.087-22.468,50.087-50.087V250.435 C456.348,241.212,448.869,233.739,439.652,233.739z M422.957,300.522H222.609V267.13h200.348V300.522z"/></g></g><g transform="matrix(1, 0, 0, 1, 176.081833, 7.388535)"><g><path d="M335.206,38.934c-6.326-7.054-18.522-7.054-24.848,0C301.283,49.049,256,101.152,256,133.565 c0,36.826,29.956,66.783,66.783,66.783c36.826,0,66.783-29.956,66.783-66.783C389.565,101.152,344.282,49.049,335.206,38.934z"/></g></g></g><path d="M 180.97 372.236 C 187.536 372.236 193.554 368.673 196.832 362.985 C 201.417 355.032 204.054 345.824 204.054 335.981 C 204.054 325.75 201.199 316.208 196.282 308.047 L 208.586 295.743 L 211.243 298.4 C 213.013 300.17 215.883 300.17 217.653 298.4 L 220.853 295.194 C 222.624 293.424 222.624 290.554 220.853 288.784 L 205.929 273.86 C 204.159 272.09 201.29 272.09 199.52 273.86 L 196.316 277.064 C 194.546 278.834 194.546 281.703 196.316 283.473 L 198.973 286.13 L 187.81 297.293 C 184.536 294.072 180.862 291.251 176.863 288.934 L 176.863 245.27 L 181.386 245.264 C 183.885 245.261 185.91 243.236 185.913 240.738 L 185.924 231.753 C 185.927 229.246 183.893 227.213 181.386 227.216 L 117.957 227.289 C 115.459 227.292 113.434 229.317 113.431 231.815 L 113.419 240.803 C 113.417 243.309 115.45 245.34 117.957 245.337 L 122.48 245.332 L 122.48 288.931 C 106.242 298.338 95.289 315.862 95.289 335.981 C 95.289 345.824 97.926 355.035 102.512 362.985 C 105.792 368.673 111.811 372.236 118.373 372.236 L 180.97 372.236 Z M 129.295 300.697 L 136.076 296.769 L 136.076 245.318 L 163.267 245.287 L 163.267 296.769 L 170.048 300.697 C 177.075 304.768 182.545 310.818 186.068 317.853 L 113.275 317.853 C 116.801 310.818 122.268 304.768 129.295 300.697 Z" style="stroke-width: 1;"/></g></g></g></svg>
